!!!COM: Charles Ives
!!!OTL: [T240_Ive-w23p14-16m42-51]
**kern	**kern	**dynam	**kern	**dynam	**kern	**dynam	**kern	**dynam	**kern	**dynam
!!pagebreak:original
*clefF4	*clefG2	*	*clefF4	*	*clefC3	*	*clefG2	*	*clefG2	*
*k[]	*k[]	*	*k[]	*	*k[]	*	*k[]	*	*k[]	*
*C:	*C:	*	*C:	*	*C:	*	*C:	*	*C:	*
*M4/4	*M4/4	*	*M4/4	*	*M4/4	*	*M4/4	*	*M4/4	*
=1	=1	=1	=1	=1	=1	=1	=1	=1	=1	=1
*^	*	*	*	*	*	*	*	*	*	*
!	!	!	!	!	!	!	!	!	!	!LO:TX:t=[quarter]=120	!
!	!	!	!	!	!	!	!	!	!	!LO:TX:a:B:t=[As fast as it may be played. All notes are natural unless marked otherwise.]	!
!	!	!	!	!	!	!	!	!	!	!LO:TX:a:t=H	!
!	!	!	!	!	!	!	!	!	!	!LO:TX:a:B:t=42	!
8GL 8A-X	8C	(16dLL 16a 16b-X 16ee	mf	2FF 2C	f	2G-X 2c#X	f	2g 2dd	f	2ee-X 2aa	f
.	.	16bn)	.	.	.	.	.	.	.	.	.
8.AnJ 8.B-X	8.C#X 8.D	(16.e	.	.	.	.	.	.	.	.	.
.	.	32cck	.	.	.	.	.	.	.	.	.
.	.	16aaJJ)	.	.	.	.	.	.	.	.	.
*	*	*^	*	*	*	*	*	*	*	*	*
16FLL 16A-X	8E 8G	(16eeLL	8a^^ 8b-X	.	.	.	.	.	.	.	.	.
16E-X	.	16ff#X	.	.	.	.	.	.	.	.	.	.
*v	*v	*	*	*	*	*	*	*	*	*	*	*
*	*v	*v	*	*	*	*	*	*	*	*	*
16G-X	16.ee-X	.	.	.	.	.	.	.	.	.
16A-X	.	.	2BBn	.	2G#X	.	2b-X	.	2een	.
.	32cc#Xk	.	.	.	.	.	.	.	.	.
16GnJJ	16ddJJ)	.	.	.	.	.	.	.	.	.
16.d#XLL	(16eLL	.	.	.	.	.	.	.	.	.
.	16ffnJ	.	.	.	.	.	.	.	.	.
32E-k	.	.	.	.	.	.	.	.	.	.
16GG	8.ddd	.	.	.	.	.	.	.	.	.
16G#X	.	.	.	.	.	.	.	.	.	.
16AA	.	.	.	.	.	.	.	.	.	.
[16BB-XJJ	[16bbnJk	.	.	.	.	.	.	.	.	.
=2	=2	=2	=2	=2	=2	=2	=2	=2	=2	=2
!	!	!	!	!	!	!	!	!	!LO:TX:a:B:t=43	!
48BB-LLL]	48bbLLL]	.	3FF 3C	.	3G-X 3c#X	.	3g 3dd	.	3ee-X 3aa	.
48E-X	48.ff#X	.	.	.	.	.	.	.	.	.
48FnJJJ	.	.	.	.	.	.	.	.	.	.
.	96eeJJJk)	.	.	.	.	.	.	.	.	.
*	*^	*	*	*	*	*	*	*	*	*
16En^^LL 16F	(16eeLL	8a 8b-X	.	.	.	.	.	.	.	.	.
16B-X	16bn	.	.	.	.	.	.	.	.	.	.
*	*v	*v	*	*	*	*	*	*	*	*	*
48DL	48ggL	.	.	.	.	.	.	.	.	.
48D#X	48ff#X	.	.	.	.	.	.	.	.	.
48EJ	48ee#XJ	.	.	.	.	.	.	.	.	.
16G#XJJ	16cc#XJJ	.	.	.	.	.	.	.	.	.
16.GnLL	16.ddLL	.	.	.	.	.	.	.	.	.
.	.	.	3EE	.	[9%2B-X	.	(9%2g#X	.	9%2bbn	.
[32BBnJJk	[32bb-XJJk	.	.	.	.	.	.	.	.	.
32BBKLL]	32bb-KLL]	.	.	.	.	.	.	.	.	.
8qCC#X/ 8qEE	.	.	.	.	.	.	.	.	.	.
16DD	16ggg	.	.	.	.	.	.	.	.	.
[32D#XJJk	[32gg#XJJk	.	.	.	.	.	.	.	.	.
.	.	.	.	.	9B-_ [9e	.	9an)	.	9ddn	.
16D#LL]	16gg#LL]	.	.	.	.	.	.	.	.	.
16.G#X	16.ee-X	.	.	.	.	.	.	.	.	.
.	.	.	6AAn	.	3B-] 3e]	.	3fn	.	3een	.
32B-JJk	32ccnJJk)	.	.	.	.	.	.	.	.	.
*	*^	*	*	*	*	*	*	*	*	*
16d#X^^LL	(8eL	8e^^	.	.	.	.	.	.	.	.	.
16E	.	.	.	.	.	.	.	.	.	.	.
.	.	.	.	6GG-X	.	.	.	.	.	.	.
*	*v	*v	*	*	*	*	*	*	*	*	*
16GGn	16ffnL	.	.	.	.	.	.	.	.	.
16G#XJJ	[16dddJJ	.	.	.	.	.	.	.	.	.
!!pagebreak:original
=3	=3	=3	=3	=3	=3	=3	=3	=3	=3	=3
*	*	*	*	*	*^	*	*	*	*	*
!	!LO:TX:b:t=	!	!	!	!	!	!	!	!	!	!
!	!LO:TX:b:t=	!	!	!	!	!	!	!	!	!LO:TX:a:B:t=44	!
16AALL	16dddLL]	.	5FF 5C	.	16ryy@	5G-X 5c#X	.	5g 5dd	.	5ee-X 5aa	.
[16BB-X	[16bbn	.	.	.	16ryy@	.	.	.	.	.	.
48BB-L]	48bbL]	.	.	.	48ryy@	.	.	.	.	.	.
48.E-X	48.ff#X	.	.	.	32ryy@	.	.	.	.	.	.
96FJJJk	96eenJJJk)	.	.	.	96ryy@	.	.	.	.	.	.
*^	*^	*	*	*	*	*	*	*	*	*	*
16EnLL 16G-X	8F	(16eeLL	8a^^ 8b-X	.	.	.	128.ryy@	.	.	.	.	.	.
.	.	.	.	.	.	.	(5%2.c-X	.	.	.	.	.	.
.	.	.	.	.	5EE	.	.	5A-X	.	5b-X	.	5ccc#X	.
16E-X	.	16ff#X	.	.	.	.	.	.	.	.	.	.	.
*v	*v	*	*	*	*	*	*	*	*	*	*	*	*
*	*v	*v	*	*	*	*	*	*	*	*	*	*
16.G-X	16.ee-X	.	.	.	.	.	.	.	.	.	.
.	.	.	5D	.	.	(5%2Gn	.	15%2ccn	.	5ee-X	.
32A-Xk	32cc#Xk	.	.	.	.	.	.	.	.	.	.
16GnJJ	16ddJJ)	.	.	.	.	.	.	.	.	.	.
*	*^	*	*	*	*	*	*	*	*	*	*
8.C#X^^L 8.D 8.A- 8.B-X	(16eLL	8e^^	.	.	.	.	.	.	.	.	.	.
.	.	.	.	.	.	.	.	.	15%2en	.	.	.
.	32ccnk	.	.	.	.	.	.	.	.	.	.	.
.	16aaJJ)	.	.	.	.	.	.	.	.	.	.	.
.	.	.	.	5%2D-X	.	.	.	.	.	.	5aa-X	.
.	16.ee-^^	16.a^^ 16.b-X	.	.	.	.	.	.	.	.	.	.
.	.	.	.	.	.	.	.	.	15%2b-X	.	.	.
16CnJk 16G 16A-X	.	.	.	.	.	.	.	.	.	.	.	.
*	*v	*v	*	*	*	*	*	*	*	*	*	*
4.G-X	((4.d 4.f 4.a 4.bn	.	.	.	.	.	.	.	.	.	.
.	.	.	.	.	5G#X)	.	.	.	.	.	.
.	.	.	.	.	.	5r)yy	.	5an	.	5ddn	.
!	!	!	!	!	!	!	!	!	!	!LO:TX:a:B:t=45	!
.	.	.	3FF 3C	.	8ryy@	3G-X 3c#X	.	3g 3dd	.	3ee-X 3aa	.
4.A-X	4.d-X 4.g))	.	.	.	9...ryy@	.	.	.	.	.	.
.	.	.	3CC	.	6ryy@	[3cn	.	3%2ee	.	3ggg	.
4G-X	4dn^^ 4f	.	.	.	6ryy@	.	.	.	.	.	.
.	.	.	3D-X	.	12ryy@	3c] 3fn	.	.	.	3ff#X	.
4A-X	4c#X 4g	.	.	.	4ryy@	.	.	.	.	.	.
!	!	!	!	!	!	!	!	!	!	!LO:TX:a:B:t=46	!
4Gn	4d 4g#X	.	4CC 4GGn	.	4ryy@	4D-X 4G#X	.	4d 4a	.	4b-X 4ee	.
*	*	*	*	*	*v	*v	*	*	*	*	*
=4	=4	=4	=4	=4	=4	=4	=4	=4	=4	=4
*	*^	*	*	*	*	*	*	*	*	*
20%3G-XL	20%3f^^L	20%3dnL	.	4EE-X	.	4Fn	.	4f#X	.	4b	.
20%3A-X	20%3gn	20%3c#XJ	.	.	.	.	.	.	.	.	.
.	.	.	.	6.CC 6.GG	.	6.D-X 6.G#X	.	6.G 6.d	.	6.B 6.e-X	.
20%3Gn	20%3g#X	10%3d	.	.	.	.	.	.	.	.	.
20%3An	20%3b-X	.	.	.	.	.	.	.	.	.	.
.	.	.	.	12FFn	.	12Gn	.	12Bn	.	12f#X	.
.	.	.	.	6EEn	.	6Dn 6c-X	.	6fn 6b	.	6aa	.
20%3B-XJ	20%3aJ	20%3f	.	.	.	.	.	.	.	.	.
!!pagebreak:original
=5	=5	=5	=5	=5	=5	=5	=5	=5	=5	=5	=5
*	*	*	*	*	*	*	*	*^	*	*	*
!	!	!	!	!	!	!	!	!	!	!	!LO:TX:a:t=I	!
!	!LO:TX:a:t=I	!	!	!	!	!	!	!	!	!	!LO:TX:a:B:t=47	!
.	7fL	7dL	.	20%3CCL 20%3GG	.	20%3D-X^^L 20%3G#X	.	5632ryy@	[20%3d^^L 20%3a	.	20%3eeL	.
7G-XL	.	.	.	.	.	.	.	39424%5625ryy@	.	.	.	.
.	7gn	7c#XJ	.	.	.	.	.	5632ryy@	.	.	.	.
7A-X	.	.	.	.	.	.	.	197120%1373ryy@	.	.	.	.
.	.	.	.	20%3EE-X	.	20%3Bn	.	140%19ryy@	20%3d] 20%3fn	.	20%3ff#X	.
.	7g#X	7%2d	.	.	.	.	.	5632ryy@	.	.	.	.
7Gn	.	.	.	.	.	.	.	197120%2781ryy@	.	.	.	.
.	.	.	.	[20%3FF	.	40%3AL	.	20.ryy@	20%3g	.	20%3.ee-X	.
.	.	.	.	.	.	[40%3dJ	.	28.ryy@	.	.	.	.
.	7b-X	.	.	.	.	.	.	5632ryy@	.	.	.	.
7An	.	.	.	.	.	.	.	197120%4189ryy@	.	.	.	.
.	.	.	.	10FF]	.	20%3.d]	.	20.ryy@	20%3g-X	.	.	.
.	.	.	.	.	.	.	.	40ryy@	.	.	40%3cc#Xk	.
.	.	.	.	10GGn	.	.	.	70.ryy@	.	.	.	.
.	7a	7f	.	.	.	.	.	5632ryy@	.	.	.	.
7B-X	.	.	.	.	.	.	.	197120%5597ryy@	.	.	.	.
.	.	.	.	.	.	.	.	20ryy@	20%3e-XJ	.	20%3ddJ	.
.	.	.	.	10AA-XJ	.	.	.	40ryy@	.	.	.	.
.	.	.	.	.	.	40%3GJk	.	280%11ryy@	.	.	.	.
.	7cc	7%2e	.	.	.	.	.	5632ryy@	.	.	.	.
7d-X	.	.	.	.	.	.	.	39424%1401ryy@	.	.	.	.
.	.	.	.	7CCL 7GG	.	7D-XL 7G#X	.	14.ryy@	7AL 7d	.	7B-XL 7e	.
.	7ddJ	.	.	.	.	.	.	5632ryy@	.	.	.	.
7E-XJ	.	.	.	.	.	.	.	39424%1401ryy@	.	.	.	.
.	.	.	.	7F#XJ	.	[7enJ	.	14.ryy@	7bnJ	.	7ffJ	.
.	22%3fnL 22%3dd#X	11%3e	.	.	.	.	.	5632ryy@	.	.	.	.
22%3dnL	.	.	.	.	.	.	.	5632%197ryy@	.	.	.	.
.	.	.	.	.	.	.	.	[7gg#XL	.	.	.	.
.	.	.	.	21%4AA	.	[7%4Gn 7%4e_	.	.	7b-XL	.	(7%2.ddd	.
.	22%3ggn	.	.	.	.	.	.	.	.	.	.	.
22%3G#X	.	.	.	.	.	.	.	.	.	.	.	.
.	.	.	.	.	.	.	.	14gg#L]	.	.	.	.
.	.	.	.	.	.	.	.	.	[7aJ	.	.	.
.	.	.	.	21%4E-X	.	.	.	.	.	.	.	.
.	.	.	.	.	.	.	.	[14ff#XJJ	.	.	.	.
*	*v	*v	*	*	*	*	*	*	*	*	*	*
.	22%3f#X	.	.	.	.	.	.	.	.	.	.
22%3fn	.	.	.	.	.	.	.	.	.	.	.
.	.	.	.	.	.	.	308%27ryy@	7aL] 7ff#X]	.	.	.
.	22%3b	.	.	.	.	.	5632ryy@	.	.	.	.
22%3c	.	.	.	.	.	.	16896%125ryy@	.	.	.	.
.	.	.	[21%4C#X	.	.	.	21ryy@	.	.	.	.
.	.	.	.	.	.	.	78848%6379ryy@	[7fnJ 7dd	.	[7bbn)	.
*	*^	*	*	*	*	*	*	*	*	*	*
.	.	(11%3a	.	.	.	.	.	5632.ryy@	.	.	.	.
.	22%3ee	.	.	.	.	.	.	5632ryy@	.	.	.	.
22%3D#X	.	.	.	.	.	.	.	39424%2425ryy@	.	.	.	.
.	.	.	.	14C#LL]	.	21GKL] 21e]	.	21ryy@	14fLL] 14ccn	.	21bbLL]	.
.	.	.	.	.	.	21%2GJ 21%2fn	.	42ryy@	.	.	21.ff#X	.
.	.	.	.	14DJJ	.	.	.	308ryy@	14e-XJJ 14b-X	.	.	.
.	22%3ee-X	.	.	.	.	.	.	5632ryy@	.	.	.	.
22%3En	.	.	.	.	.	.	.	118272%5227ryy@	.	.	.	.
.	.	.	.	.	.	.	.	42ryy@	.	.	[42eeJJk	.
!	!	!	!	!	!	!	!	!	!	!	!LO:TX:a:B:t=48	!
.	.	.	.	44%3CCLL	.	44%3D-XLL 44%3G#X	.	22.ryy@	44%3dLL 44%3a	.	44%3b-XLL 44%3ee]	.
*	*v	*v	*	*	*	*	*	*	*	*	*	*
.	22%3g	.	44%3AA-X	.	44%3Fn	.	5632ryy@	44%3f#XJ	.	44%3bnJ	.
22%3F#X	.	.	.	.	.	.	5632%383ryy@	.	.	.	.
.	.	.	44%3GG	.	44%3c	.	44.ryy@	44%3.eL 44%3.b	.	(88%3gg-XLL	.
.	.	.	.	.	.	.	44.ryy@	.	.	88%3ffJ)	.
.	22%3ff 22%3aa-X	.	44%3C	.	44%3Bn	.	5632ryy@	.	.	44%3cc#XJ	.
22%3Gn	.	.	.	.	.	.	5632%191ryy@	.	.	.	.
.	.	.	.	.	.	.	44.ryy@	88%3eJk	.	.	.
.	.	.	44%3D-X	.	44%3dn	.	22.ryy@	22%3G 22%3e-X	.	44%3.ddL	.
.	22%3e-X 22%3cc#X	.	44%3B-X	.	44%3d-X	.	5632ryy@	.	.	.	.
22%3d	.	.	.	.	.	.	5632%191ryy@	.	.	.	.
.	.	.	.	.	.	.	44.ryy@	.	.	[88%3bb-XJk	.
.	.	.	44%3A	.	44%3c	.	44.ryy@	44%3.dL 44%3.bn	.	88%3bb-KL]	.
.	.	.	.	.	.	.	44.ryy@	.	.	44%3ggg	.
.	22%3ff#X	.	44%3D-X	.	44%3G#X	.	5632ryy@	.	.	.	.
22%3Fn	.	.	.	.	.	.	5632%191ryy@	.	.	.	.
.	.	.	.	.	.	.	44.ryy@	[88%3GJk [88%3e-X [88%3a	.	[88%3gg#XJk	.
.	.	.	44%3C	.	44%3F#X	.	22.ryy@	44%3GK] 44%3e-] 44%3a]	.	44%3gg#L]	.
.	22%3ddnJ	.	44%3GG	.	44%3Fn	.	5632ryy@	22%3d-XJ	.	44%3.ee-X	.
*	*^	*	*	*	*	*	*	*	*	*	*
44%3BBnL 44%3c#X	.	44%3b-XLL	.	.	.	.	.	5632%383ryy@	.	.	.	.
.	.	.	.	44%3AA-XJJ	.	44%3EJJ	.	5632ryy@	.	.	.	.
44%3FnJJ	.	44%3enJJ	.	.	.	.	.	5632%191ryy@	.	.	.	.
.	.	.	.	.	.	.	.	44.ryy@	.	.	88%3ccnJJk	.
*	*	*	*	*	*	*	*	*v	*v	*	*	*
!!pagebreak:original
=6	=6	=6	=6	=6	=6	=6	=6	=6	=6	=6	=6
.	5632ryy@	.	.	14CCLL 14GG	.	14D-XLL 14G#X	.	14ALL 14d	.	14B-XLL 14e	.
!!pagebreak:original
.	7fL	7dL	.	.	.	.	.	.	.	.	.
7G-XL	.	.	.	.	.	.	.	.	.	.	.
.	.	.	.	14F#XJ	.	[14enJJ	.	14bn	.	14ffJ	.
.	.	.	.	21%2AA	.	[7%2Gn 7%2e_	.	14b-X [14gg#X	.	7.ddd	.
.	7g	7c#XJ	.	.	.	.	.	.	.	.	.
7A-X	.	.	.	.	.	.	.	.	.	.	.
.	.	.	.	.	.	.	.	[28aL 28gg#]	.	.	.
.	.	.	.	21%2E-X	.	.	.	.	.	.	.
.	.	.	.	.	.	.	.	28aJJ] [28ff#X	.	.	.
.	.	.	.	.	.	.	.	14aL 14ff#]	.	.	.
.	7g#X	7%2d	.	.	.	.	.	.	.	.	.
7Gn	.	.	.	.	.	.	.	.	.	.	.
.	.	.	.	21%2C#X	.	.	.	.	.	.	.
.	.	.	.	.	.	.	.	[14fnJ 14dd	.	[14bbnk	.
.	.	.	.	28CLL	.	42GKLL] 42e]	.	28fLL] 28ccn	.	42bbLL]	.
.	7b-X	.	.	.	.	.	.	.	.	.	.
7An	.	.	.	.	.	.	.	.	.	.	.
.	.	.	.	.	.	21GJJ 21fn	.	.	.	42.ff#X	.
.	.	.	.	28DJJJ	.	.	.	28e-XJJJ 28b-X	.	.	.
.	.	.	.	.	.	.	.	.	.	84eeJJJk	.
!	!	!	!	!	!	!	!	!	!	!LO:TX:a:B:t=49	!
.	.	.	.	20%3CCL 20%3GG	.	20%3D-XL 20%3G#X	.	[20%3dL 20%3a	.	20%3eeL	.
.	7an	7f	.	.	.	.	.	.	.	.	.
7B-X	.	.	.	.	.	.	.	.	.	.	.
.	.	.	.	20%3EE-X	.	20%3Bn	.	20%3d] 20%3fn	.	20%3ff#X	.
*	*v	*v	*	*	*	*	*	*	*	*	*
.	7e 7cc	.	.	.	.	.	.	.	.	.
7d-X	.	.	.	.	.	.	.	.	.	.
.	.	.	[20%3FF	.	40%3AL	.	20%3g	.	20%3.ee-X	.
.	7ddJ	.	.	.	.	.	.	.	.	.
7E-XJ	.	.	.	.	.	.	.	.	.	.
.	.	.	.	.	[40%3dJ	.	.	.	.	.
.	.	.	10FF]	.	20%3.d]	.	20%3g-X	.	.	.
.	20%3fL	.	.	.	.	.	.	.	.	.
*	*^	*	*	*	*	*	*	*	*	*
20%3G-XL	.	20%3dnL	.	.	.	.	.	.	.	.	.
.	.	.	.	.	.	.	.	.	.	40%3cc#Xk	.
.	.	.	.	5ryy	.	.	.	.	.	.	.
.	.	.	.	.	.	.	.	20%3e-XJ	.	20%3ddJ	.
.	.	.	.	.	.	.	.	.	.	.	.
.	20%3g	.	.	.	.	.	.	.	.	.	.
20%3A-X	.	20%3c#XJ	.	.	.	.	.	.	.	.	.
.	.	.	.	.	.	40%3GJk	.	.	.	.	.
.	.	.	.	6.CC 6.GG	.	6.D-X 6.G#X	.	6.G 6.d	.	6.e	.
.	20%3g#X	.	.	.	.	.	.	.	.	.	.
85765%16384ryy	.	10%3d	<	.	.	.	.	.	.	.	.
.	20%3b-X	.	.	.	.	.	.	.	.	.	.
85765%16384ryy	.	.	.	.	.	.	.	.	.	.	.
.	.	.	.	12FFn	.	12Gn	.	12Bn	.	12f#X	.
.	.	.	.	6EEn	.	6Dn 6c-X	.	6fn 6b	.	6aa	.
.	20%3aJ	.	.	.	.	.	.	.	.	.	.
118580%11541ryy	.	.	[	.	.	.	.	.	.	.	.
!!pagebreak:original
=7	=7	=7	=7	=7	=7	=7	=7	=7	=7	=7	=7
*	*	*	*	*M4/4	*	*M4/4	*	*M4/4	*	*M4/4	*
!	!	!	!	!	!	!	!	!	!	!LO:TX:a:B:t=50	!
.	.	.	.	8CCL 8GG	.	8D-XL 8G#X	.	8d 8a	.	(16b-XLL 16ee	.
!!pagebreak:original
*M4/4	*M4/4	*	*	*	*	*	*	*	*	*	*
*	*X8va	*	*	*	*	*	*	*	*	*	*
.	4ccccn	.	f f	.	.	.	.	.	.	.	.
.	.	.	.	.	.	.	.	.	.	16cc#XJ)	.
.	.	.	.	[8C#XJ [8G#X	.	[8dJ [8a	.	(16f#XLL	.	(16ffL	.
.	.	.	.	.	.	.	.	16a	.	16dd	.
.	.	.	.	16C#KL] 16G#]	.	16dKL] 16a]	.	16bnJ)	.	16ccnJ)	.
.	4bb	.	.	.	.	.	.	.	.	.	.
.	.	.	.	[8.BB-XJ [8.Fn	.	[8.BJ [8.f#X	.	(16gnL	.	(16aa-XL	.
.	.	.	.	.	.	.	.	16b-X	.	16ffn	.
.	.	.	.	.	.	.	.	16c	.	16ee-X	.
.	.	.	.	8BB-] 8F]	.	8B] 8f#]	.	16e-X	.	16cc	.
*	*v	*v	*	*	*	*	*	*	*	*	*
4AA#X 4B	6bb-X	.	.	.	.	.	.	.	.	.
.	.	.	.	.	.	.	16fJJ)	.	16ddJ)	.
.	.	.	[4.EEn [4.BBn	.	[4.Fn [4.c	.	(16cc#XLL	.	(16dddL	.
.	6a	.	.	.	.	.	.	.	.	.
.	.	.	.	.	.	.	16ee	.	16bb	.
.	.	.	.	.	.	.	16f#X	.	16aan	.
4D-X 4c	.	.	.	.	.	.	.	.	.	.
.	.	.	.	.	.	.	16a	.	16ff#X	.
.	-36525%-16384ryy	.	.	.	.	.	.	.	.	.
.	.	.	.	.	.	.	16gn	.	16gg#X	.
.	.	.	.	.	.	.	16fn	.	16aa#X	.
=8	=8	=8	=8	=8	=8	=8	=8	=8	=8	=8
!	!	!	!	!	!	!	!	!	!LO:TX:a:t=J	!
!	!	!	!	!	!	!	!	!	!LO:TX:a:B:t=51	!
.	.	.	16EEKL] 16BB]	.	16FKL] 16c]	.	16a-XJJ)	.	16ggnJJ)	.
4AA#X 4B	10bbnL	.	.	.	.	.	.	.	.	.
.	.	.	[8.CCJ [8.GG	.	[8.D-XJ [8.G#X	.	(16ggnLL	.	(16fff#XLL	.
*	*8va	*	*	*	*	*	*	*	*	*
.	10cccc	.	.	.	.	.	.	.	.	.
.	.	.	.	.	.	.	16aa#X	.	16ddd#X	.
.	.	.	.	.	.	.	16ccn	.	16ccc#X	.
*	*X8va	*	*	*	*	*	*	*	*	*
.	85765%-16384ryy	.	.	.	.	.	.	.	.	.
.	.	.	2CC] 2GG]	.	2D-] 2G#]	.	16dd#X	.	16aa#X	.
4D-X 4c	.	.	.	.	.	.	.	.	.	.
.	85765%-16384ryy	.	.	.	.	.	.	.	.	.
.	.	.	.	.	.	.	16cc#X	.	16cccn	.
.	.	.	.	.	.	.	16bn	.	16dddn	.
.	85765%-16384ryy	.	.	.	.	.	.	.	.	.
.	.	.	.	.	.	.	16ddn	.	16bbn	.
.	.	.	.	.	.	.	16ffn	.	16gg#X	.
4AA#X 4B	14bb-XL	.	.	.	.	.	.	.	.	.
.	.	.	.	.	.	.	16an	.	16eee	.
.	14bbn	.	.	.	.	.	.	.	.	.
.	.	.	.	.	.	.	16f#X	.	16gggn	.
*	*8va	*	*	*	*	*	*	*	*	*
.	14cccc	.	.	.	.	.	.	.	.	.
.	.	.	.	.	.	.	16g#XJ)	.	16eee#XJ)	.
*	*X8va	*	*	*	*	*	*	*	*	*
.	14bbb	.	.	.	.	.	.	.	.	.
.	.	.	[4EE [4BBn	.	[4F [4c	.	(16cc#XL	.	(16dddnL	.
4D-X 4c	.	.	.	.	.	.	.	.	.	.
.	14bb-X	.	.	.	.	.	.	.	.	.
.	.	.	.	.	.	.	16ee	.	16bb	.
.	14a	.	.	.	.	.	.	.	.	.
.	.	.	.	.	.	.	16f#X	.	16aan	.
.	14bb-XJ	.	.	.	.	.	.	.	.	.
.	.	.	.	.	.	.	16aJJ)	.	16ff#XJJ)	.
=	=	=	=	=	=	=	=	=	=	=
*-	*-	*-	*-	*-	*-	*-	*-	*-	*-	*-
!!!system-decoration: [(s1,s2,s3,s4)][({(s5,s6)})]
